!!!!SEGMENT: pl-sa--6-a-i-6--005_anonim--quadryl.krn
!!!cenid: 18xx:368
!!!COM: Anonim
!!!COM-rismID: pe30004985
!!!CDT:
!!!CNT:
!!!OTL: Quadryl
!!!PDT:
!!!AGN: Secular
!!!SMS-siglum: PL-SA
!!!SMS-shelfmark: 6/A I 6
!!!SMS-shelfwork: 005 W
!!!SMS-variant:
!!!SMS-altvar:
!!!NIFC-rismSourceID: 1001065404
!!!NIFC-rismChildID: 1001065404
!!!NIFC-islandoraID:
!!!URL-pdf-islandora:
!!!URL-scan: https://bc.bdsandomierz.pl/dlibra/publication/1233/edition/1194/content @EN{Scan in the Sandomierz Diocese Digital Library} @PL{Skany w portalu Cyfrowa Biblioteka Diecezjalna w Sandomierzu}
!!!ONB-nifc: Str. 2, s. 1-3
!!!AIN: 1 piano
!!!key:
**kern	**kern	**dynam
*part1	*part1	*part1
*staff2	*staff1	*
*Ipiano	*Iempty	*
*I"Piano	*	*
*I'P-no	*	*
*group1	*group1	*
*clefF4	*clefG2	*
*k[]	*k[]	*
*C:	*C:	*
*M2/4	*M2/4	*
=1	=1	=1
*2\right	*2\right	*
!	!LO:TX:a:t=Quadryl.	!
!	!LO:TX:a:t=P:zapiski:problem= 934 315 519 przed kluczem	!
!LO:TX:a:t=P:problem=4\right&colon; global	!LO:TX:a:t=P:problem=8\right&colon; global	!LO:DY:b:t=p.
4C/	8.cc\L	p
!	!LO:TX:a:t=P:problem=16\right&colon; global	!
.	16dd\K	.
4c\	8.cc\ 8.ee	.
.	16dd\Jk 16ff	.
=2	=2	=2
4C/	8ee\L 8gg	.
.	8aa\ 8ccc	.
4r	8gg\ 8bb	.
.	8ff\J 8aa	.
=3	=3	=3
4C/	8ee\L 8gg	.
.	8ff\ 8aa	.
4c\	8ee\ 8gg	.
.	8cc\J 8ee	.
=4	=4	=4
4G\	8dd\L 8ff	.
.	8ee\ 8gg	.
4GG/	8dd\ 8ff	.
.	8b\J 8dd	.
=5	=5	=5
!	!	!LO:DY:b:t=f.
4C/	8.cc\L	f
.	16dd\K	.
4c\	8.cc\ 8.ee	.
.	16dd\Jk 16ff	.
=6	=6	=6
4C/	8ee\L 8gg	.
.	8aa\ 8ccc	.
4r	8gg\ 8bb	.
.	8ff\J 8aa	.
=7	=7	=7
4C\ 4c	8ee\L 8gg	.
.	8cc\	.
4GG\ 4G	8dd\ 8ff	.
.	8g\J 8b	.
=8	=8	=8
!	!LO:TX:a:t=P:problem=4\right&colon; global	!
4C\ 4c	4cc\	.
4r	4r	.
=9:|!|:	=9:|!|:	=9:|!|:
!LO:TX:a:t=P:problem=8\right&colon; global	!	!
8G\L	8dd\	.
8d\ 8g	32ee\LLL	.
.	32dd\	.
.	32cc#X\	.
.	32dd\JJJ	.
8d\ 8g	8gg\L	.
8d\J 8g	8ff\J	.
!!LO:LB:g=original
=10	=10	=10
*rep	*	*
8G\L	4.dd\	.
8d\ 8g	.	.
8d\ 8g	.	.
8d\J 8g	8b\	.
*Xrep	*	*
*clefG2	*	*
=11	=11	=11
8c/L	8cc\L	.
8e/ 8g	8ee\	.
8e/ 8g	8gg\	.
8e/J 8g	8ee\J	.
=12	=12	=12
8f/L 8a	8aa\L	.
8d/J 8f	8ff\J	.
4G/ 4d	4cc\	.
*clefF4	*	*
=13	=13	=13
4C/	8.cc\L	.
.	16dd\K	.
4c\	8.cc\ 8.ee	.
.	16dd\Jk 16ff	.
=14	=14	=14
4C/	8ee\L 8gg	.
.	8aa\ 8ccc	.
4r	8gg\ 8bb	.
.	8ff\J 8aa	.
=15	=15	=15
4C\ 4c	8ee\L 8gg	.
.	8cc\	.
4GG\ 4G	8dd\ 8ff	.
.	8g\J 8b	.
=16	=16	=16
4C\ 4c	4cc\	.
4r	4r	.
=17:|!|:	=17:|!|:	=17:|!|:
4C/	4cc\	.
4c\	8cc\L 8ee	.
.	8dd\J 8ff	.
=18	=18	=18
*rep	*	*
4C/	4ee\ 4gg	.
4c\	4ee\ 4ccc	.
*Xrep	*	*
=19	=19	=19
*rep	*	*
4C/	8r	.
.	8aa\L 8ccc	.
4c\	8gg\ 8bb	.
.	8ff\J 8aa	.
*Xrep	*	*
=20	=20	=20
*rep	*	*
4C/	4ee\ 4gg	.
4c\	4cc\ 4ee	.
*Xrep	*	*
=21	=21	=21
4GG/	8ff\L	.
.	8gg\	.
4G\	8b\ 8dd	.
.	8gg\J	.
!!LO:LB:g=original
=22	=22	=22
4C/	8ee\L	.
.	8gg\	.
4c\	8cc\	.
.	8ccc\J	.
=23	=23	=23
!	!LO:TX:a:t=P:global:problem=klamra łukowa nad triolą	!
!	!LO:TUP:a	!
4GG/	12ccc\L	.
.	12bb\	.
.	12aa\J	.
!	!LO:TUP:a	!
4G\	12gg\L	.
.	12aa\	.
.	12bb\J	.
=24	=24	=24
4C\ 4c	4ccc\	.
!	!LO:TUP:a	!
4r	12gg\L	.
.	12aa\	.
.	12bb\J	.
*clefG2	*	*
=25||	=25||	=25||
*M3/8	*M3/8	*
8c/L	8.cc\L 8.ccc	.
8e/ 8g	.	.
.	16bb\Jk	.
8e/J 8g	8ccc\	.
=26	=26	=26
*rep	*	*
.	8qaa/	.
8c/L	8.gg\L	.
8e/ 8g	.	.
.	16ff#X\Jk	.
8e/J 8g	8gg\	.
*Xrep	*	*
=27	=27	=27
*rep	*	*
8c/L	8ee\L	.
8e/ 8g	8gg\	.
8e/J 8g	8ee\J	.
*Xrep	*	*
=28	=28	=28
*rep	*	*
8c/L	4.cc\	.
8e/ 8g	.	.
8e/J 8g	.	.
*Xrep	*	*
*clefF4	*	*
=29	=29	=29
8GG\ 8G	8f\L	.
8r	16ff\L	.
.	16ee\J	.
8G\ 8B 8d	8ff\J	.
=30	=30	=30
8C\ 8c	8f\L	.
8r	16ee\L	.
.	16dd\J	.
8c\ 8e	8ee\J	.
=31	=31	=31
8G\L	16ff\LL	.
.	16aa\	.
8d\ 8f	16bb\	.
.	16gg\	.
8d\J 8f	16aa\	.
.	16bb\JJ	.
=32	=32	=32
!LO:TX:a:t=P:problem=mixed beam	!LO:TX:a:t=P:problem=mixed beam	!
8c\L	4ccc\	.
8C/J	.	.
8r	8r	.
==	==	==
*-	*-	*-
!!!system-decoration: {(g1)}
!!!ENC: Anna Matuszewska
!!!END: 2020-12-15
!!!ENC: Marcin Jachim
!!!END: 2020-06-15
!!!YEC: Copyright 2022 Narodowy Instytut Fryderyka Chopina (https://polishscores.org)
!!!YEM: License CC-BY-4.0 (https://creativecommons.org/licenses/by/4.0)
